src/assets/icons/image.svg

<svg width="14" height="14" viewBox="0 0 14 14" fill="none" xmlns="http://www.w3.org/2000/svg">
<g id="image">
<g clip-path="url(#clip0_156_4562)">
<path id="Vector" fill-rule="evenodd" clip-rule="evenodd" d="M2.2 1.99999C1.64772 1.99999 1.2 2.4477 1.2 2.99999V8.54276L4.13907 5.01588C4.24699 4.88637 4.40441 4.80824 4.57281 4.8006C4.74121 4.79297 4.90506 4.85652 5.02426 4.97572L8.70514 8.65659L9.73907 7.41588C9.84699 7.28637 10.0044 7.20824 10.1728 7.2006C10.3412 7.19297 10.5051 7.25652 10.6243 7.37572L12.8 9.55146V2.99999C12.8 2.4477 12.3523 1.99999 11.8 1.99999H2.2ZM14 11V2.99999C14 1.78496 13.015 0.799988 11.8 0.799988H2.2C0.984974 0.799988 0 1.78496 0 2.99999V10.1954V10.2039V11C0 12.215 0.984974 13.2 2.2 13.2H6.19542C6.19826 13.2 6.2011 13.2 6.20394 13.2H11.8C13.015 13.2 14 12.215 14 11ZM12.7749 11.2235L10.2403 8.68883L7.48103 12H11.8C12.2755 12 12.6734 11.6682 12.7749 11.2235ZM5.91897 12L7.93375 9.58226L4.64032 6.28884L1.2 10.4172V11C1.2 11.5523 1.64772 12 2.2 12H5.91897Z" fill="black"/>
</g>
</g>
<defs>
<clipPath id="clip0_156_4562">
<rect width="14" height="14" fill="white"/>
</clipPath>
</defs>
</svg>

<svg xmlns="http://www.w3.org/2000/svg" fill="none" viewBox="0 0 14 14"><g clip-path="url(#a)"><path fill="#000" fill-rule="evenodd" d="M2.2 2a1 1 0 0 0-1 1v5.543l2.94-3.527a.6.6 0 0 1 .884-.04l3.681 3.68 1.034-1.24a.6.6 0 0 1 .885-.04L12.8 9.55V3a1 1 0 0 0-1-1zM14 11V3A2.2 2.2 0 0 0 11.8.8H2.2A2.2 2.2 0 0 0 0 3v8a2.2 2.2 0 0 0 2.2 2.2h9.6A2.2 2.2 0 0 0 14 11m-1.225.223L10.24 8.69 7.481 12H11.8a1 1 0 0 0 .975-.777M5.919 12l2.015-2.418L4.64 6.29 1.2 10.417V11a1 1 0 0 0 1 1z" clip-rule="evenodd"/></g><defs><clipPath id="a"><path fill="#fff" d="M0 0h14v14H0z"/></clipPath></defs></svg>
